!!!OTL: 492. Der Abschied.
!!!COM: Volksmelodie
!!!ODT: 1838
!!!ARE: Europa, Mitteleuropa, Deutschland
!!!SCT: B0492
!!!TXL: @@DE
!!!YEM: Copyright 1995, estate of Helmut Schaffrath.
**kern	**text
*ICvox	*
*Ivox	*
*clefG2	*
*M6/8	*
*k[]	*
*C:	*
!LO:TX:a:t=Heiter.	!
{8c	Was
=1	=1
8.c	klin-
16e	-get
8e	und
8.e	ſin-
16g	-get
8g	die
=2	=2
4g	Straß'
8cc	her-
4cc}	-auf?
{8cc	Jhr
=3	=3
4cc	Jung-
8g	-fern,
8.ee	ma-
16dd	-chet
8ee	die
=4	=4
4cc	Fen-
8g	-ſter
4g}	auf!
{8e	Es
=5	=5
(8.e	ʒieh-
16d)	-et
8e	der
4g	Burſch_in
8d	die
=6	=6
4.f	Wei-
4e}	-te:
{8e	ſie
=7	=7
(8.e	ge-
16d)	-ben
8e	ihm
4g	das
8d	Ge-
=8	=8
4.f	-lei-
8e	-te.
8r}	.
==	==
!!!AGN: Abschieds - Lied
!!!GTL: Abschiedslieder
!!!ONB: ESAC (Essen Associative Code) Database: BOEHME
!!!AMT: compound duple
!!!AIN: vox
!!!EED: Helmut Schaffrath
!!!EEV: 1.0
!!Volksmel. Seit 1838 bekannt.
!!@@COMMENT:"Gedicht von L. Uhland 1806. Jn deֵ¿ֵ¿en Gedichten 1860. S. 209."
!!@@END:
!!!Text: L. Uhland
!!!URL-scan: https://archive.org/details/BoehmeVtLieder1895/page/n393/mode/2up
!!!ENC: Anna Maria Matuszewska
!!!EEV: 2024/10/07
*-	*-
